flaticon/army-badges/target-6.svg

<svg xmlns="http://www.w3.org/2000/svg" width="32" height="32" viewBox="0 0 24 24">
    <path d="M 12 0 C 5.398438 0 0 5.359375 0 12 C 0 18.640625 5.398438 24 12 24 C 18.601562 24 24 18.601562 24 12 C 24 5.398438 18.601562 0 12 0 Z M 12 23.199219 C 5.839844 23.199219 0.800781 18.160156 0.800781 12 C 0.800781 5.839844 5.839844 0.800781 12 0.800781 C 18.160156 0.800781 23.199219 5.839844 23.199219 12 C 23.199219 18.160156 18.160156 23.199219 12 23.199219 Z M 12 23.199219"/>
    <path d="M 12 1.601562 C 6.28125 1.601562 1.601562 6.28125 1.601562 12 C 1.601562 17.761719 6.28125 22.398438 12 22.398438 C 17.71875 22.398438 22.398438 17.761719 22.398438 12 C 22.398438 6.28125 17.71875 1.601562 12 1.601562 Z M 12.398438 21.589844 L 12.398438 18.800781 L 13.199219 18.800781 C 13.441406 18.800781 13.601562 18.640625 13.601562 18.398438 C 13.601562 18.160156 13.441406 18 13.199219 18 L 12.398438 18 L 12.398438 15.601562 L 13.199219 15.601562 C 13.441406 15.601562 13.601562 15.441406 13.601562 15.199219 C 13.601562 14.960938 13.441406 14.800781 13.199219 14.800781 L 12.398438 14.800781 L 12.398438 14.398438 C 12.398438 14.160156 12.238281 14 12 14 C 11.761719 14 11.601562 14.160156 11.601562 14.398438 L 11.601562 14.800781 L 10.800781 14.800781 C 10.558594 14.800781 10.398438 14.960938 10.398438 15.199219 C 10.398438 15.441406 10.558594 15.601562 10.800781 15.601562 L 11.601562 15.601562 L 11.601562 18 L 10.800781 18 C 10.558594 18 10.398438 18.160156 10.398438 18.398438 C 10.398438 18.640625 10.558594 18.800781 10.800781 18.800781 L 11.601562 18.800781 L 11.601562 21.589844 C 6.636719 21.386719 2.613281 17.363281 2.410156 12.398438 L 5.199219 12.398438 L 5.199219 13.199219 C 5.199219 13.441406 5.359375 13.601562 5.601562 13.601562 C 5.839844 13.601562 6 13.441406 6 13.199219 L 6 12.398438 L 8.398438 12.398438 L 8.398438 13.199219 C 8.398438 13.441406 8.558594 13.601562 8.800781 13.601562 C 9.039062 13.601562 9.199219 13.441406 9.199219 13.199219 L 9.199219 12.398438 L 9.601562 12.398438 C 9.839844 12.398438 10 12.238281 10 12 C 10 11.761719 9.839844 11.601562 9.601562 11.601562 L 9.199219 11.601562 L 9.199219 10.800781 C 9.199219 10.558594 9.039062 10.398438 8.800781 10.398438 C 8.558594 10.398438 8.398438 10.558594 8.398438 10.800781 L 8.398438 11.601562 L 6 11.601562 L 6 10.800781 C 6 10.558594 5.839844 10.398438 5.601562 10.398438 C 5.359375 10.398438 5.199219 10.558594 5.199219 10.800781 L 5.199219 11.601562 L 2.410156 11.601562 C 2.613281 6.636719 6.636719 2.613281 11.601562 2.410156 L 11.601562 5.199219 L 10.800781 5.199219 C 10.558594 5.199219 10.398438 5.359375 10.398438 5.601562 C 10.398438 5.839844 10.558594 6 10.800781 6 L 11.601562 6 L 11.601562 8.398438 L 10.800781 8.398438 C 10.558594 8.398438 10.398438 8.558594 10.398438 8.800781 C 10.398438 9.039062 10.558594 9.199219 10.800781 9.199219 L 11.601562 9.199219 L 11.601562 9.601562 C 11.601562 9.839844 11.761719 10 12 10 C 12.238281 10 12.398438 9.839844 12.398438 9.601562 L 12.398438 9.199219 L 13.199219 9.199219 C 13.441406 9.199219 13.601562 9.039062 13.601562 8.800781 C 13.601562 8.558594 13.441406 8.398438 13.199219 8.398438 L 12.398438 8.398438 L 12.398438 6 L 13.199219 6 C 13.441406 6 13.601562 5.839844 13.601562 5.601562 C 13.601562 5.359375 13.441406 5.199219 13.199219 5.199219 L 12.398438 5.199219 L 12.398438 2.410156 C 17.363281 2.613281 21.386719 6.636719 21.589844 11.601562 L 18.800781 11.601562 L 18.800781 10.800781 C 18.800781 10.558594 18.640625 10.398438 18.398438 10.398438 C 18.160156 10.398438 18 10.558594 18 10.800781 L 18 11.601562 L 15.601562 11.601562 L 15.601562 10.800781 C 15.601562 10.558594 15.441406 10.398438 15.199219 10.398438 C 14.960938 10.398438 14.800781 10.558594 14.800781 10.800781 L 14.800781 11.601562 L 14.398438 11.601562 C 14.160156 11.601562 14 11.761719 14 12 C 14 12.238281 14.160156 12.398438 14.398438 12.398438 L 14.800781 12.398438 L 14.800781 13.199219 C 14.800781 13.441406 14.960938 13.601562 15.199219 13.601562 C 15.441406 13.601562 15.601562 13.441406 15.601562 13.199219 L 15.601562 12.398438 L 18 12.398438 L 18 13.199219 C 18 13.441406 18.160156 13.601562 18.398438 13.601562 C 18.640625 13.601562 18.800781 13.441406 18.800781 13.199219 L 18.800781 12.398438 L 21.589844 12.398438 C 21.386719 17.363281 17.363281 21.386719 12.398438 21.589844 Z M 12.398438 21.589844"/>
    <path d="M 12 11.199219 C 11.558594 11.199219 11.199219 11.558594 11.199219 12 C 11.199219 12.441406 11.558594 12.800781 12 12.800781 C 12.441406 12.800781 12.800781 12.441406 12.800781 12 C 12.800781 11.558594 12.441406 11.199219 12 11.199219 Z M 12 11.199219"/>
</svg>

<svg xmlns="http://www.w3.org/2000/svg" width="32" height="32" viewBox="0 0 24 24">
    <path d="M12 0C5.398 0 0 5.36 0 12s5.398 12 12 12 12-5.398 12-12S18.602 0 12 0zm0 23.2C5.84 23.2.8 18.16.8 12 .8 5.84 5.84.8 12 .8 18.16.8 23.2 5.84 23.2 12c0 6.16-5.04 11.2-11.2 11.2zm0 0"/>
    <path d="M12 1.602C6.281 1.602 1.602 6.282 1.602 12c0 5.762 4.68 10.398 10.398 10.398 5.719 0 10.398-4.636 10.398-10.398 0-5.719-4.68-10.398-10.398-10.398zm.398 19.988V18.8h.801c.242 0 .403-.16.403-.402 0-.238-.16-.398-.403-.398h-.8v-2.398h.8c.242 0 .403-.16.403-.403 0-.238-.16-.398-.403-.398h-.8v-.403c0-.238-.16-.398-.399-.398-.238 0-.398.16-.398.398v.403H10.8c-.242 0-.403.16-.403.398 0 .242.16.403.403.403h.8V18h-.8c-.242 0-.403.16-.403.398 0 .243.16.403.403.403h.8v2.789c-4.964-.203-8.988-4.227-9.19-9.192h2.788v.801c0 .242.16.403.403.403.238 0 .398-.16.398-.403v-.8h2.398v.8c0 .242.16.403.403.403.238 0 .398-.16.398-.403v-.8h.403c.238 0 .398-.16.398-.399 0-.238-.16-.398-.398-.398h-.403V10.8c0-.242-.16-.403-.398-.403-.242 0-.403.16-.403.403v.8H6v-.8c0-.242-.16-.403-.398-.403-.243 0-.403.16-.403.403v.8H2.41c.203-4.964 4.227-8.988 9.192-9.19v2.788H10.8c-.242 0-.403.16-.403.403 0 .238.16.398.403.398h.8v2.398h-.8c-.242 0-.403.16-.403.403 0 .238.16.398.403.398h.8v.403c0 .238.16.398.399.398.238 0 .398-.16.398-.398v-.403h.801c.242 0 .403-.16.403-.398 0-.242-.16-.403-.403-.403h-.8V6h.8c.242 0 .403-.16.403-.398 0-.243-.16-.403-.403-.403h-.8V2.41c4.964.203 8.988 4.227 9.19 9.192h-2.788V10.8c0-.242-.16-.403-.403-.403-.238 0-.398.16-.398.403v.8h-2.398v-.8c0-.242-.16-.403-.403-.403-.238 0-.398.16-.398.403v.8h-.403c-.238 0-.398.16-.398.399 0 .238.16.398.398.398h.403v.801c0 .242.16.403.398.403.242 0 .403-.16.403-.403v-.8H18v.8c0 .242.16.403.398.403.243 0 .403-.16.403-.403v-.8h2.789c-.203 4.964-4.227 8.988-9.192 9.19zm0 0"/>
    <path d="M12 11.2a.802.802 0 0 0 0 1.6.802.802 0 0 0 0-1.6zm0 0"/>
</svg>
